X: 1111
T: A New Tune
%R: minuet, waltz, jig
B: Henry Playford "Apollo's Banquet", London 1687 (5th Edition)
F: https://archive.org/details/apollosbanquetco01rugg
Z: 2017 John Chambers <jc:trillian.mit.edu>
N: Bar 11 is missing a 1/4 note; not fixed.
M: 3/2
L: 1/8
K: F
% - - - - - - - - - -
|:\
F3GF2 f4A2 | c4a2 g2e2c2 | F3GF2 f4A2 | G4(AG) (AG)D2E2 :: F3GF2 f4f2 | f2(gf)(ed) e4g2 |
(g2e2)g2 g2e2f2 | g2f2e2 d4c2 | f2a2g2 a2f2A2 | c2A2GF G4F>D | F4f2 c2GF | G4(A<G) G2D2E2 | HF6 |]
% - - - - - - - - - -

%%sep 1 1 500
%%sep 1 1 500

